build/system/DownloadSolid.svg

<svg xmlns="http://www.w3.org/2000/svg" fill="none" viewBox="0 0 24 24" focusable="false"><path d="M0 0H24V24H0z"/><path fill="#74767B" fill-rule="evenodd" d="M3 12C3 7.02944 7.02944 3 12 3C16.9706 3 21 7.02944 21 12C21 16.9706 16.9706 21 12 21C7.02944 21 3 16.9706 3 12ZM12.6837 6.65088C12.6837 6.2919 12.3927 6.00089 12.0337 6.00089C11.6747 6.00089 11.3837 6.2919 11.3837 6.65088L11.3837 11.7852L9.42001 9.68999C9.18001 9.42999 8.77001 9.40999 8.50001 9.64999C8.36001 9.77999 8.29001 9.94999 8.29001 10.13C8.29001 10.29 8.34001 10.44 8.46001 10.57L11.5137 13.78C11.7937 14.09 12.2737 14.09 12.5537 13.78L15.54 10.57C15.78 10.3 15.76 9.88999 15.5 9.64999C15.23 9.40999 14.82 9.41999 14.58 9.68999L12.6837 11.7373L12.6837 6.65088ZM7.35 16.65C7.35 16.291 7.64102 16 8 16L16 16C16.359 16 16.65 16.291 16.65 16.65C16.65 17.009 16.359 17.3 16 17.3L8 17.3C7.64102 17.3 7.35 17.009 7.35 16.65Z"/></svg>

<svg xmlns="http://www.w3.org/2000/svg" fill="none" viewBox="0 0 24 24" focusable="false"><path fill="#74767B" fill-rule="evenodd" d="M3 12c0-4.98 4.02-9 9-9 4.97 0 9 4.02 9 9a9 9 0 0 1-9 9c-4.98 0-9-4.03-9-9m9.68-5.35c0-.36-.29-.65-.65-.65s-.65.29-.65.65v5.13l-1.97-2.1a.636.636 0 0 0-.91-.03c-.15.12-.21.3-.21.48 0 .16.04.31.16.44l3.06 3.21c.28.31.76.31 1.04 0l2.99-3.21c.23-.27.22-.68-.04-.92-.27-.25-.69-.24-.92.03l-1.9 2.05zm-5.33 10c0-.36.29-.65.65-.65h8a.644.644 0 0 1 0 1.29H8c-.36 0-.65-.29-.65-.64"/></svg>
